**kern	**kern	**dynam
*part1	*part1	*part1
*staff2	*staff1	*
*I"Piano	*	*
*clefF4	*clefG2	*
*k[f#c#g#]	*k[f#c#g#]	*
=1	=1	=1
[2E [2d	[2e [2g# [2b	>
=	=	=
2E] 2d]	2e] 2g#] 2b]	.
=||	=||	=||
*M6/8	*M6/8	*
!	!LO:TX:a:B:t=Tempo I	!
4AA) 4E	4c#) 4e 4a	] pp
8r	8r	.
.	(8qee/	.
4r	4aa`)	.
8r	(8ee	.
=	=	=
2.r	8ddL	.
.	8cc#	.
.	8bJ	.
.	8cc#L	.
.	8dd	.
.	8eeJ	.
=	=	=
2.r	4a`)	.
.	(8b	.
.	4cc#)	.
.	(8b	.
=	=	=
2.r	4a)	.
.	(8e	.
.	4c#)	.
.	(8e	.
=	=	=
2.r	4A)	.
.	8r	.
.	(8qee/	.
.	4aa`)	.
.	(8ee	.
=	=	=
*-	*-	*-
!!!system-decoration: {(s1,s2)}
